!!!OTL: Abgelehnte Teilnahme (75), S. 211
!!!id: T0225
**kern
*clefG2
*k[]
*G:
{8d
=1
4g
8g
4g
8a
=2
4b
8a
4b}
=3
{8a
=4
8a
8dd
8dd
8dd
8cc
8b
=5
4.b
4a}
=6
{16dd
16dd
=7
4dd
8dd
8dd
8ee
16dd
16dd
=8
4dd
8b
4a}
=9
{16cc
16cc
=10
8b
8dd
8b
8a
8g
8a
=11
4.g
4d}
=12
{16d
16d
=13
8g
8g
8g
8b
8g
8b
=14
2dd}
8r
=15
{16b
16b
=16
8b
8dd
8b
8a
8g
8a
=17
2g}
8r
==
*-
!!!minrhy: 16
!!!meters: 6/8 ]  ZZ[6
!!!cut: Abgelehnte Teilnahme (75), S. 211
!!!reg: Luxemburg
!!!trd: Singendes Volk, Esch-Alzette 1937 posth.
!!!rhy1: X_  X__X_X__X_  X__X_X__   (x2)
!!!rhy2: X_  X_X_X_X_X_X_  X__.X__
!!!key: T0225  16  G 6/8 ]  ZZ[6
!!!mod: SECHSTONSKALA DUR ?]  AMBITUS[9
!!!kad: 322-551
!!!akz: 1133_2532_5552_321-5_1355_3211_
!!!fot: 'a__b__c__d__as"dw_
!!!for: 'a__b__c__bv_bw_bw_
!!!fok: '/__^__\__\__/__\__
!! PHRAS[AUFTAKTIG]
!!!fkt: Liebeslieder
!!!bem: StraPen, fff Witry, 17.1.1933
!! THILL, Mathias:
!! PR[33] 2K[6] 2G[8] 3K[8] 3G[6] 4A[8] 4Ü[0] 5A[0] 6K[0] 6G[0]
!! 7K[0] 7G[0] 8A[0] MEHR[0] SI[38] ABS[48] SR[15] SP[23]
!! ST[16] 2k[6] 2g[8] 3k[2] 3g[4] 4d[2] 4ü[0] 5d[2] 6k[4] 6g[0]
!! 7k[0] 7g[0] 8d[0] mehr[0] si[29] dm[+9] sr[15] sp[15]
!! 1F[79] 2F[21] 3F[0] 4F[0] LF[0] 2P[0] 3P[0] 4P[0] TRI[0] DF[2] AB[53]
!! TF[0] U3K[0] U3[0] U4[0] U4Ü[0] U5[4] U6K[0] U6[0] U7K[0] U7[4]
!! N1[29] N2K[0] N2[6] N3K[0] N3[33] N4[4] N4Ü[0] N5[10] N6K[0] N6[6]
!!!n7k: 0] N7[2] O1[2] O2K[0] O2[0] O3K[0] O3[0] HÖ[0
